svg/opentelemetry.svg

<?xml version="1.0" encoding="UTF-8"?>
<svg xmlns="http://www.w3.org/2000/svg" xmlns:xlink="http://www.w3.org/1999/xlink" width="32" height="32" viewBox="0 0 32 32">
<path fill-rule="nonzero" fill="rgb(96.078431%, 65.882353%, 0%)" fill-opacity="1" d="M 16.914062 17.449219 C 16.285156 18.078125 15.929688 18.933594 15.929688 19.824219 C 15.929688 21.679688 17.433594 23.183594 19.289062 23.183594 C 20.179688 23.183594 21.035156 22.832031 21.664062 22.199219 C 22.628906 21.238281 22.914062 19.792969 22.394531 18.539062 C 21.964844 17.503906 21.046875 16.75 19.945312 16.53125 C 18.84375 16.3125 17.707031 16.65625 16.914062 17.449219 M 20.464844 21.003906 C 19.988281 21.480469 19.273438 21.621094 18.652344 21.363281 C 18.03125 21.105469 17.625 20.5 17.625 19.828125 C 17.625 19.074219 18.128906 18.414062 18.855469 18.21875 C 19.585938 18.023438 20.351562 18.34375 20.730469 18.996094 C 21.105469 19.648438 20.996094 20.472656 20.464844 21.003906 M 21.605469 0.917969 L 19.546875 2.976562 C 19.144531 3.382812 19.144531 4.039062 19.546875 4.445312 L 27.585938 12.484375 C 27.992188 12.886719 28.648438 12.886719 29.054688 12.484375 L 31.113281 10.425781 C 31.515625 10.019531 31.515625 9.363281 31.113281 8.957031 L 23.070312 0.917969 C 22.664062 0.515625 22.011719 0.515625 21.605469 0.917969 M 7.183594 27.222656 C 7.359375 27.046875 7.460938 26.808594 7.460938 26.558594 C 7.460938 26.308594 7.359375 26.070312 7.183594 25.894531 L 6.136719 24.851562 C 5.960938 24.675781 5.722656 24.578125 5.476562 24.578125 C 5.226562 24.578125 4.988281 24.675781 4.8125 24.851562 L 2.648438 27.011719 L 2.644531 27.015625 L 2.050781 26.421875 C 1.71875 26.125 1.210938 26.140625 0.898438 26.457031 C 0.582031 26.773438 0.570312 27.277344 0.867188 27.609375 L 4.425781 31.167969 C 4.636719 31.390625 4.949219 31.480469 5.246094 31.402344 C 5.542969 31.328125 5.773438 31.097656 5.847656 30.800781 C 5.925781 30.503906 5.835938 30.191406 5.613281 29.980469 L 5.019531 29.386719 L 5.023438 29.386719 Z M 7.183594 27.222656 "/>
<path fill-rule="nonzero" fill="rgb(25.882353%, 36.078431%, 78.039216%)" fill-opacity="1" d="M 18.074219 6.828125 L 13.5 11.402344 C 13.09375 11.8125 13.09375 12.472656 13.5 12.882812 L 16.324219 15.707031 C 18.359375 14.25 21.144531 14.476562 22.917969 16.242188 L 25.203125 13.957031 C 25.609375 13.546875 25.609375 12.886719 25.203125 12.476562 L 19.554688 6.828125 C 19.359375 6.632812 19.09375 6.519531 18.816406 6.519531 C 18.539062 6.519531 18.269531 6.632812 18.074219 6.828125 M 15.136719 16.898438 L 13.46875 15.226562 C 13.074219 14.839844 12.441406 14.839844 12.046875 15.226562 L 6.167969 21.113281 C 5.777344 21.507812 5.777344 22.140625 6.167969 22.535156 L 9.5 25.867188 C 9.890625 26.257812 10.53125 26.257812 10.921875 25.867188 L 14.703125 22.078125 C 13.894531 20.402344 14.058594 18.417969 15.136719 16.898438 "/>
</svg>

<svg role="img" viewBox="0 0 32 32" xmlns="http://www.w3.org/2000/svg"><path d="M16.914 17.45a3.357 3.357 0 0 0 0 4.75 3.357 3.357 0 0 0 4.75 0 3.357 3.357 0 0 0-2.375-5.735c-.89 0-1.746.355-2.375.984m3.55 3.555a1.664 1.664 0 0 1-2.839-1.176 1.664 1.664 0 0 1 2.84-1.176 1.664 1.664 0 0 1 0 2.352M21.605.918l-2.058 2.059a1.044 1.044 0 0 0 0 1.468l8.039 8.04a1.044 1.044 0 0 0 1.469 0l2.058-2.06a1.044 1.044 0 0 0 0-1.468L23.07.918a1.04 1.04 0 0 0-1.465 0M7.184 27.223a.94.94 0 0 0 .277-.664.94.94 0 0 0-.277-.664l-1.047-1.043a.935.935 0 0 0-1.324 0l-2.165 2.16-.003.004-.594-.594a.837.837 0 0 0-1.153.035.837.837 0 0 0-.03 1.152l3.558 3.559c.21.223.523.312.82.234a.83.83 0 0 0 .602-.601.83.83 0 0 0-.235-.82l-.593-.594h.003Zm0 0" fill="rgb(96.078432%, 65.882355%, 0%)"/><path d="M18.074 6.828 13.5 11.402a1.05 1.05 0 0 0 0 1.48l2.824 2.825a5.12 5.12 0 0 1 6.594.535l2.285-2.285c.406-.41.406-1.07 0-1.48l-5.648-5.649a1.05 1.05 0 0 0-.739-.308c-.277 0-.546.113-.742.308m-2.937 10.07-1.668-1.671a1.016 1.016 0 0 0-1.422 0l-5.879 5.886a1.01 1.01 0 0 0 0 1.422L9.5 25.867c.39.39 1.031.39 1.422 0l3.781-3.789a5.11 5.11 0 0 1 .434-5.18" fill="rgb(25.882354%, 36.078432%, 78.039217%)"/></svg>
